src/icons/dai.svg

<svg fill="none" height="32" viewBox="0 0 32 32" width="32" xmlns="http://www.w3.org/2000/svg"><circle cx="16.060379" cy="16.036282" fill="#f4b731" r="16"/><path clip-rule="evenodd" d="m9.872488 8.3784h6.13725c3.73313 0 6.562852 2.024227 7.615613 4.969724h1.911759v1.780302h-1.509193c.02953.281346.04463.567948.04463.859152v.04372c0 .32783-.01907.650135-.05639.965776h1.520953v1.780284h-1.948177c-1.080471 2.904532-3.888281 4.90944-7.579201 4.90944h-6.137246v-4.909439h-2.1326422v-1.780284h2.1326422v-1.868651h-2.1326412v-1.780302h2.1326422zm1.715733 10.398961v3.312384h4.421517c2.728488 0 4.755657-1.326654 5.699292-3.312384zm10.64641-1.780284h-10.64641v-1.868651h10.649148c.03947.294077.05962.595524.05962.902875v.04372c0 .314451-.02105.622289-.06235.922056zm-6.224893-7.024254c2.741055 0 4.774293 1.361655 5.712234 3.375301h-10.133751v-3.375301z" fill="#fff" fill-opacity=".941176" fill-rule="evenodd" stroke-width=".05394"/></svg>

<?xml version="1.0" encoding="UTF-8" standalone="no"?>
<svg
   xmlns:dc="http://purl.org/dc/elements/1.1/"
   xmlns:cc="http://creativecommons.org/ns#"
   xmlns:rdf="http://www.w3.org/1999/02/22-rdf-syntax-ns#"
   xmlns:svg="http://www.w3.org/2000/svg"
   xmlns="http://www.w3.org/2000/svg"
   xmlns:sodipodi="http://sodipodi.sourceforge.net/DTD/sodipodi-0.dtd"
   xmlns:inkscape="http://www.inkscape.org/namespaces/inkscape"
   width="32"
   height="32"
   viewBox="0 0 32 32"
   version="1.1"
   id="svg4"
   sodipodi:docname="dai-color.svg"
   style="fill:none"
   inkscape:version="0.92.3 (2405546, 2018-03-11)">
  <metadata
     id="metadata10">
    <rdf:RDF>
      <cc:Work
         rdf:about="">
        <dc:format>image/svg+xml</dc:format>
        <dc:type
           rdf:resource="http://purl.org/dc/dcmitype/StillImage" />
        <dc:title></dc:title>
      </cc:Work>
    </rdf:RDF>
  </metadata>
  <defs
     id="defs8" />
  <sodipodi:namedview
     pagecolor="#ffffff"
     bordercolor="#666666"
     borderopacity="1"
     objecttolerance="10"
     gridtolerance="10"
     guidetolerance="10"
     inkscape:pageopacity="0"
     inkscape:pageshadow="2"
     inkscape:window-width="2560"
     inkscape:window-height="1413"
     id="namedview6"
     showgrid="false"
     inkscape:zoom="13.342756"
     inkscape:cx="5.6096189"
     inkscape:cy="11.884069"
     inkscape:window-x="2560"
     inkscape:window-y="27"
     inkscape:window-maximized="1"
     inkscape:current-layer="g968" />
  <g
     id="g968">
    <circle
       style="fill:#f4b731;fill-opacity:1"
       cx="16.060379"
       cy="16.036282"
       r="16"
       id="circle2" />
    <path
       style="clip-rule:evenodd;fill:#ffffff;fill-rule:evenodd;stroke-width:0.05394046;fill-opacity:0.94117647"
       inkscape:connector-curvature="0"
       id="path2"
       d="m 9.872488,8.3784 h 6.13725 c 3.73313,0 6.562852,2.024227 7.615613,4.969724 h 1.911759 v 1.780302 h -1.509193 c 0.02953,0.281346 0.04463,0.567948 0.04463,0.859152 v 0.04372 c 0,0.32783 -0.01907,0.650135 -0.05639,0.965776 h 1.520953 v 1.780284 h -1.948177 c -1.080471,2.904532 -3.888281,4.90944 -7.579201,4.90944 H 9.872486 V 18.777359 H 7.7398438 V 16.997075 H 9.872486 V 15.128424 H 7.7398448 V 13.348122 H 9.872487 Z m 1.715733,10.398961 v 3.312384 h 4.421517 c 2.728488,0 4.755657,-1.326654 5.699292,-3.312384 z m 10.64641,-1.780284 h -10.64641 v -1.868651 h 10.649148 c 0.03947,0.294077 0.05962,0.595524 0.05962,0.902875 v 0.04372 c 0,0.314451 -0.02105,0.622289 -0.06235,0.922056 z M 16.009738,9.972823 c 2.741055,0 4.774293,1.361655 5.712234,3.375301 H 11.588221 V 9.972823 Z" />
  </g>
</svg>
